; G-Code generated by Simplify3D(R) Version 4.1.2
; Nov 8, 2021 at 3:25:54 PM
; Settings Summary
;   processName,Process1
;   applyToModels,Hood Cable Clip,Hood Cable Clip(2)
;   profileName,Creality Ender 3 Pro Fast 1mm (modified)
;   profileVersion,2021-10-30 12:46:29
;   baseProfile,Creality Ender 3 Pro (modified)
;   printMaterial,PLA
;   printQuality,Fast
;   printExtruders,
;   extruderName,Primary Extruder
;   extruderToolheadNumber,0
;   extruderDiameter,1
;   extruderAutoWidth,1
;   extruderWidth,1.2
;   extrusionMultiplier,1.2
;   extruderUseRetract,1
;   extruderRetractionDistance,4
;   extruderExtraRestartDistance,0
;   extruderRetractionZLift,0
;   extruderRetractionSpeed,2400
;   extruderUseCoasting,0
;   extruderCoastingDistance,0.2
;   extruderUseWipe,0
;   extruderWipeDistance,5
;   primaryExtruder,0
;   layerHeight,0.5
;   topSolidLayers,2
;   bottomSolidLayers,2
;   perimeterOutlines,2
;   printPerimetersInsideOut,1
;   startPointOption,2
;   startPointOriginX,0
;   startPointOriginY,0
;   sequentialIslands,0
;   spiralVaseMode,0
;   firstLayerHeightPercentage,80
;   firstLayerWidthPercentage,100
;   firstLayerUnderspeed,0.75
;   useRaft,0
;   raftExtruder,0
;   raftTopLayers,3
;   raftBaseLayers,2
;   raftOffset,3
;   raftSeparationDistance,0.14
;   raftTopInfill,100
;   aboveRaftSpeedMultiplier,0.3
;   useSkirt,0
;   skirtExtruder,0
;   skirtLayers,1
;   skirtOutlines,2
;   skirtOffset,4
;   usePrimePillar,0
;   primePillarExtruder,999
;   primePillarWidth,12
;   primePillarLocation,7
;   primePillarSpeedMultiplier,1
;   useOozeShield,0
;   oozeShieldExtruder,999
;   oozeShieldOffset,2
;   oozeShieldOutlines,1
;   oozeShieldSidewallShape,1
;   oozeShieldSidewallAngle,30
;   oozeShieldSpeedMultiplier,1
;   infillExtruder,0
;   internalInfillPattern,Fast Honeycomb
;   externalInfillPattern,Rectilinear
;   infillPercentage,40
;   outlineOverlapPercentage,15
;   infillExtrusionWidthPercentage,100
;   minInfillLength,5
;   infillLayerInterval,1
;   internalInfillAngles,0
;   overlapInternalInfillAngles,0
;   externalInfillAngles,45,-45
;   generateSupport,1
;   supportExtruder,0
;   supportInfillPercentage,50
;   supportExtraInflation,0
;   supportBaseLayers,0
;   denseSupportExtruder,0
;   denseSupportLayers,0
;   denseSupportInfillPercentage,70
;   supportLayerInterval,1
;   supportHorizontalPartOffset,0.3
;   supportUpperSeparationLayers,1
;   supportLowerSeparationLayers,1
;   supportType,0
;   supportGridSpacing,1
;   maxOverhangAngle,60
;   supportAngles,0
;   temperatureName,Primary Extruder,Heated Bed
;   temperatureNumber,0,0
;   temperatureSetpointCount,1,1
;   temperatureSetpointLayers,1,1
;   temperatureSetpointTemperatures,240,60
;   temperatureStabilizeAtStartup,1,1
;   temperatureHeatedBed,0,1
;   fanLayers,1,2
;   fanSpeeds,0,100
;   blipFanToFullPower,0
;   adjustSpeedForCooling,1
;   minSpeedLayerTime,15
;   minCoolingSpeedSlowdown,20
;   increaseFanForCooling,0
;   minFanLayerTime,45
;   maxCoolingFanSpeed,100
;   increaseFanForBridging,0
;   bridgingFanSpeed,100
;   use5D,1
;   relativeEdistances,0
;   allowEaxisZeroing,1
;   independentExtruderAxes,0
;   includeM10123,0
;   stickySupport,1
;   applyToolheadOffsets,0
;   gcodeXoffset,0
;   gcodeYoffset,0
;   gcodeZoffset,0
;   overrideMachineDefinition,1
;   machineTypeOverride,0
;   strokeXoverride,220
;   strokeYoverride,220
;   strokeZoverride,250
;   originOffsetXoverride,-5
;   originOffsetYoverride,-5
;   originOffsetZoverride,0
;   homeXdirOverride,-1
;   homeYdirOverride,-1
;   homeZdirOverride,-1
;   flipXoverride,1
;   flipYoverride,-1
;   flipZoverride,1
;   toolheadOffsets,0,0|0,0|0,0|0,0|0,0|0,0
;   overrideFirmwareConfiguration,1
;   firmwareTypeOverride,RepRap (Marlin/Repetier/Sprinter)
;   GPXconfigOverride,r2
;   baudRateOverride,115200
;   overridePrinterModels,1
;   printerModelsOverride
;   startingGcode,G28 ; home all axes,G1 X5 Y10 Z0.2 F3000 ; get ready to prime,G92 E0 ; reset extrusion distance,G1 X160 E15 F600 ; prime nozzle,G1 X180 F5000 ; quick wipe
;   layerChangeGcode,
;   retractionGcode,
;   toolChangeGcode,
;   endingGcode,G28 X0 ; home X axis,M106 S0 ; turn off cooling fan,M104 S0 ; turn off extruder,M140 S0 ; turn off bed,M84 ; disable motors
;   exportFileFormat,gcode
;   celebration,0
;   celebrationSong,Random Song
;   postProcessing,
;   defaultSpeed,1600
;   outlineUnderspeed,0.5
;   solidInfillUnderspeed,0.8
;   supportUnderspeed,0.8
;   rapidXYspeed,4800
;   rapidZspeed,1000
;   minBridgingArea,50
;   bridgingExtraInflation,0
;   bridgingExtrusionMultiplier,1
;   bridgingSpeedMultiplier,1
;   useFixedBridgingAngle,0
;   fixedBridgingAngle,0
;   applyBridgingToPerimeters,0
;   filamentDiameters,1.75|1.75|1.75|1.75|1.75|1.75
;   filamentPricesPerKg,20|46|46|46|46|46
;   filamentDensities,1.25|1.25|1.25|1.25|1.25|1.25
;   useMinPrintHeight,0
;   minPrintHeight,0
;   useMaxPrintHeight,0
;   maxPrintHeight,0
;   useDiaphragm,0
;   diaphragmLayerInterval,20
;   robustSlicing,1
;   mergeAllIntoSolid,0
;   onlyRetractWhenCrossingOutline,1
;   retractBetweenLayers,1
;   useRetractionMinTravel,0
;   retractionMinTravel,3
;   retractWhileWiping,0
;   onlyWipeOutlines,1
;   avoidCrossingOutline,0
;   maxMovementDetourFactor,3
;   toolChangeRetractionDistance,12
;   toolChangeExtraRestartDistance,-0.5
;   toolChangeRetractionSpeed,600
;   externalThinWallType,0
;   internalThinWallType,2
;   thinWallAllowedOverlapPercentage,10
;   singleExtrusionMinLength,1
;   singleExtrusionMinPrintingWidthPercentage,50
;   singleExtrusionMaxPrintingWidthPercentage,200
;   singleExtrusionEndpointExtension,0.2
;   horizontalSizeCompensation,0
G90
M82
M106 S0
M140 S60
M190 S60
M104 S240 T0
M109 S240 T0
G28 ; home all axes
G1 X5 Y10 Z0.2 F3000 ; get ready to prime
G92 E0 ; reset extrusion distance
G1 X160 E15 F600 ; prime nozzle
G1 X180 F5000 ; quick wipe
; process Process1
; layer 1, Z = 0.400
T0
G92 E0.0000
G1 E-4.0000 F2400
; feature inner perimeter
; tool H0.400 W1.200
G1 Z0.400 F1000
G1 X102.022 Y116.146 F4800
G1 E0.0000 F2400
G92 E0.0000
G1 X103.407 Y116.031 E0.3328 F832
G1 X103.945 Y115.919 E0.4644
G1 X104.413 Y115.765 E0.5826
G1 X105.200 Y115.403 E0.7899
G1 X105.200 Y119.602 E1.7954
G1 X104.428 Y119.832 E1.9882
G1 X102.022 Y116.146 E3.0423
; feature outer perimeter
G1 X102.115 Y114.816 F4800
G92 E0.0000
G1 X102.473 Y114.864 E0.0864 F554
G1 X102.827 Y114.875 E0.1714
G1 X103.234 Y114.841 E0.2691
G1 X103.634 Y114.758 E0.3669
G1 X103.974 Y114.646 E0.4525
G1 X104.345 Y114.476 E0.5503
G1 X104.697 Y114.259 E0.6494
G1 X105.059 Y113.964 E0.7612
G1 X105.378 Y113.619 E0.8737
G1 X105.647 Y113.234 E0.9861
G1 X105.858 Y112.818 E1.0980
G1 X105.997 Y112.425 E1.1976
G1 X106.093 Y111.971 E1.3089
G1 X106.126 Y111.556 E1.4085
G1 X106.101 Y111.090 E1.5204
G1 X106.013 Y110.631 E1.6322
G1 X105.881 Y110.236 E1.7319
G1 X105.677 Y109.816 E1.8437
G1 X105.415 Y109.427 E1.9562
G1 X105.101 Y109.077 E2.0686
G1 X104.744 Y108.776 E2.1805
G1 X104.396 Y108.552 E2.2795
G1 X104.026 Y108.374 E2.3779
G1 X103.637 Y108.242 E2.4763
G1 X103.234 Y108.159 E2.5748
G1 X102.827 Y108.125 E2.6725
G1 X102.473 Y108.136 E2.7575
G1 X102.115 Y108.184 E2.8439
G1 X101.363 Y108.389 E3.0306
G1 X101.250 Y108.399 E3.0579
G1 X101.146 Y108.394 E3.0828
G1 X101.022 Y108.371 E3.1128
G1 X100.887 Y108.325 E3.1471
G1 X100.762 Y108.260 E3.1808
G1 X100.654 Y108.179 E3.2133
G1 X100.531 Y108.048 E3.2563
G1 X100.447 Y107.919 E3.2931
G1 X100.388 Y107.777 E3.3298
G1 X100.350 Y107.604 E3.3722
G1 X100.345 Y107.453 E3.4084
G1 X100.372 Y107.278 E3.4508
G1 X100.420 Y107.138 E3.4863
G1 X100.517 Y106.972 E3.5323
G1 X100.642 Y106.833 E3.5772
G1 X100.792 Y106.725 E3.6214
G1 X100.982 Y106.642 E3.6711
G1 X101.169 Y106.606 E3.7166
G1 X106.400 Y106.601 E4.9693
G1 X106.400 Y123.400 E8.9924
G1 X105.325 Y123.400 E9.2498
G1 X100.504 Y116.016 E11.3616
G1 X100.408 Y115.834 E11.4110
G1 X100.368 Y115.706 E11.4429
G1 X100.345 Y115.547 E11.4814
G1 X100.348 Y115.409 E11.5145
G1 X100.373 Y115.271 E11.5482
G1 X100.420 Y115.138 E11.5820
G1 X100.485 Y115.016 E11.6150
G1 X100.584 Y114.888 E11.6537
G1 X100.687 Y114.793 E11.6874
G1 X100.786 Y114.725 E11.7161
G1 X100.918 Y114.662 E11.7511
G1 X101.035 Y114.626 E11.7804
G1 X101.161 Y114.605 E11.8110
G1 X101.268 Y114.602 E11.8366
G1 X101.361 Y114.610 E11.8590
G1 X102.115 Y114.816 E12.0463
; feature solid layer
G1 X103.895 Y116.971 F4800
G92 E0.0000
G1 X104.180 Y117.256 E0.0965 F887
G92 E0.0000
G1 E-4.0000 F2400
; feature inner perimeter
G1 X120.780 Y116.146 F4800
G1 E0.0000 F2400
G92 E0.0000
G1 X122.165 Y116.031 E0.3329 F832
G1 X122.703 Y115.919 E0.4644
G1 X123.172 Y115.765 E0.5826
G1 X123.959 Y115.403 E0.7899
G1 X123.959 Y119.602 E1.7954
G1 X123.187 Y119.832 E1.9882
G1 X120.780 Y116.146 E3.0422
; feature outer perimeter
G1 X120.874 Y114.816 F4800
G92 E0.0000
G1 X121.231 Y114.864 E0.0864 F554
G1 X121.586 Y114.875 E0.1714
G1 X121.993 Y114.841 E0.2692
G1 X122.393 Y114.758 E0.3669
G1 X122.732 Y114.646 E0.4526
G1 X123.103 Y114.476 E0.5503
G1 X123.455 Y114.259 E0.6494
G1 X123.817 Y113.964 E0.7612
G1 X124.137 Y113.619 E0.8737
G1 X124.406 Y113.234 E0.9861
G1 X124.617 Y112.818 E1.0980
G1 X124.755 Y112.425 E1.1977
G1 X124.852 Y111.971 E1.3089
G1 X124.884 Y111.556 E1.4085
G1 X124.860 Y111.090 E1.5204
G1 X124.771 Y110.631 E1.6322
G1 X124.639 Y110.236 E1.7319
G1 X124.435 Y109.816 E1.8437
G1 X124.173 Y109.427 E1.9562
G1 X123.860 Y109.077 E2.0686
G1 X123.503 Y108.776 E2.1805
G1 X123.155 Y108.552 E2.2795
G1 X122.784 Y108.374 E2.3779
G1 X122.395 Y108.242 E2.4763
G1 X121.993 Y108.159 E2.5748
G1 X121.586 Y108.125 E2.6725
G1 X121.231 Y108.136 E2.7575
G1 X120.874 Y108.184 E2.8439
G1 X120.122 Y108.389 E3.0306
G1 X120.008 Y108.399 E3.0579
G1 X119.904 Y108.394 E3.0828
G1 X119.781 Y108.371 E3.1128
G1 X119.645 Y108.325 E3.1471
G1 X119.521 Y108.260 E3.1808
G1 X119.412 Y108.179 E3.2133
G1 X119.289 Y108.048 E3.2563
G1 X119.206 Y107.919 E3.2931
G1 X119.146 Y107.777 E3.3298
G1 X119.109 Y107.604 E3.3722
G1 X119.104 Y107.453 E3.4084
G1 X119.130 Y107.278 E3.4507
G1 X119.179 Y107.138 E3.4863
G1 X119.275 Y106.972 E3.5323
G1 X119.401 Y106.833 E3.5772
G1 X119.550 Y106.725 E3.6213
G1 X119.741 Y106.642 E3.6711
G1 X119.927 Y106.606 E3.7166
G1 X125.159 Y106.601 E4.9693
G1 X125.159 Y123.400 E8.9923
G1 X124.083 Y123.400 E9.2498
G1 X119.262 Y116.016 E11.3616
G1 X119.166 Y115.834 E11.4110
G1 X119.126 Y115.707 E11.4429
G1 X119.103 Y115.547 E11.4814
G1 X119.106 Y115.409 E11.5145
G1 X119.132 Y115.271 E11.5482
G1 X119.178 Y115.138 E11.5820
G1 X119.244 Y115.016 E11.6150
G1 X119.342 Y114.888 E11.6537
G1 X119.446 Y114.793 E11.6874
G1 X119.545 Y114.725 E11.7161
G1 X119.676 Y114.662 E11.7511
G1 X119.793 Y114.626 E11.7804
G1 X119.920 Y114.605 E11.8110
G1 X120.026 Y114.602 E11.8366
G1 X120.119 Y114.610 E11.8589
G1 X120.874 Y114.816 E12.0463
; feature solid layer
G1 X122.578 Y116.987 F4800
G92 E0.0000
G1 X122.939 Y117.347 E0.1220 F887
G92 E0.0000
G1 E-4.0000 F2400
; feature support
G1 X127.016 Y116.589 F4800
G1 E0.0000 F2400
G92 E0.0000
G1 X129.010 Y116.589 E0.4776 F887
G1 X129.010 Y116.712 E0.5071
G1 X130.097 Y116.712 E0.7674
G1 X130.097 Y117.747 E1.0151
G1 X131.199 Y117.747 E1.2788
G1 X131.199 Y117.967 E1.3315
G1 X130.876 Y117.967 E1.4089
G1 X130.876 Y118.989 E1.6538
G1 X126.669 Y118.989 E2.6612
G1 X126.669 Y119.232 E2.7194
G1 X126.700 Y119.232 E2.7270
G1 X126.700 Y120.139 E2.9442
G1 X127.649 Y120.139 E3.1714
G1 X127.649 Y121.125 E3.4075
G1 X128.515 Y121.125 E3.6149
G1 X128.515 Y121.389 E3.6781
G1 X129.545 Y121.389 E3.9248
G92 E0.0000
G1 E-4.0000 F2400
G1 X110.787 Y121.389 F4800
G1 E0.0000 F2400
G92 E0.0000
G1 X109.756 Y121.389 E0.2467 F887
G1 X109.756 Y121.125 E0.3100
G1 X108.890 Y121.125 E0.5173
G1 X108.890 Y120.139 E0.7534
G1 X107.942 Y120.139 E0.9806
G1 X107.942 Y119.232 E1.1978
G1 X107.910 Y119.232 E1.2054
G1 X107.910 Y118.989 E1.2636
G1 X112.117 Y118.989 E2.2711
G1 X112.117 Y117.967 E2.5159
G1 X112.440 Y117.967 E2.5933
G1 X112.440 Y117.747 E2.6460
G1 X111.339 Y117.747 E2.9098
G1 X111.339 Y116.712 E3.1574
G1 X110.252 Y116.712 E3.4177
G1 X110.252 Y116.589 E3.4472
G1 X108.258 Y116.589 E3.9248
G92 E0.0000
G1 E-4.0000 F2400
; layer 2, Z = 0.900
M106 S255
; feature inner perimeter
; tool H0.500 W1.200
G1 Z0.900 F1000
G1 X105.200 Y115.403 F4800
G1 E0.0000 F2400
G92 E0.0000
G1 X105.200 Y119.602 E1.2568 F828
G1 X104.428 Y119.832 E1.4979
G1 X102.022 Y116.146 E2.8154
G1 X103.407 Y116.031 E3.2315
G1 X103.945 Y115.919 E3.3960
G1 X104.413 Y115.765 E3.5437
G1 X105.200 Y115.403 E3.8028
; feature outer perimeter
G1 X104.697 Y114.259 F4800
G92 E0.0000
G1 X105.059 Y113.964 E0.1398 F552
G1 X105.378 Y113.619 E0.2804
G1 X105.647 Y113.234 E0.4210
G1 X105.858 Y112.818 E0.5608
G1 X105.997 Y112.425 E0.6853
G1 X106.093 Y111.971 E0.8243
G1 X106.126 Y111.556 E0.9489
G1 X106.101 Y111.090 E1.0887
G1 X106.013 Y110.631 E1.2285
G1 X105.881 Y110.236 E1.3531
G1 X105.677 Y109.816 E1.4929
G1 X105.415 Y109.427 E1.6335
G1 X105.101 Y109.077 E1.7741
G1 X104.744 Y108.776 E1.9139
G1 X104.396 Y108.552 E2.0377
G1 X104.026 Y108.374 E2.1607
G1 X103.637 Y108.242 E2.2837
G1 X103.234 Y108.159 E2.4067
G1 X102.827 Y108.125 E2.5290
G1 X102.473 Y108.136 E2.6352
G1 X102.115 Y108.184 E2.7432
G1 X101.363 Y108.389 E2.9765
G1 X101.250 Y108.399 E3.0106
G1 X101.146 Y108.394 E3.0418
G1 X101.022 Y108.371 E3.0793
G1 X100.887 Y108.325 E3.1222
G1 X100.762 Y108.260 E3.1643
G1 X100.654 Y108.179 E3.2049
G1 X100.531 Y108.048 E3.2586
G1 X100.447 Y107.919 E3.3046
G1 X100.388 Y107.777 E3.3506
G1 X100.350 Y107.604 E3.4035
G1 X100.345 Y107.453 E3.4487
G1 X100.372 Y107.278 E3.5017
G1 X100.420 Y107.138 E3.5461
G1 X100.516 Y106.973 E3.6034
G1 X100.642 Y106.833 E3.6598
G1 X100.792 Y106.725 E3.7150
G1 X100.982 Y106.642 E3.7772
G1 X101.169 Y106.606 E3.8341
G1 X106.400 Y106.601 E5.4000
G1 X106.400 Y123.400 E10.4287
G1 X105.325 Y123.400 E10.7506
G1 X100.503 Y116.016 E13.3904
G1 X100.408 Y115.833 E13.4521
G1 X100.367 Y115.705 E13.4923
G1 X100.345 Y115.547 E13.5400
G1 X100.348 Y115.409 E13.5814
G1 X100.373 Y115.271 E13.6235
G1 X100.420 Y115.137 E13.6659
G1 X100.485 Y115.016 E13.7070
G1 X100.584 Y114.888 E13.7554
G1 X100.687 Y114.793 E13.7975
G1 X100.786 Y114.725 E13.8334
G1 X100.918 Y114.662 E13.8771
G1 X101.035 Y114.626 E13.9138
G1 X101.161 Y114.605 E13.9520
G1 X101.268 Y114.602 E13.9841
G1 X101.361 Y114.610 E14.0120
G1 X102.115 Y114.816 E14.2461
G1 X102.473 Y114.864 E14.3541
G1 X102.827 Y114.875 E14.4603
G1 X103.234 Y114.841 E14.5825
G1 X103.634 Y114.758 E14.7048
G1 X103.974 Y114.646 E14.8118
G1 X104.345 Y114.476 E14.9340
G1 X104.697 Y114.259 E15.0578
G92 E0.0000
G1 E-4.0000 F2400
; feature inner perimeter
G1 X120.780 Y116.146 F4800
G1 E0.0000 F2400
G92 E0.0000
G1 X122.165 Y116.031 E0.4161 F828
G1 X122.703 Y115.919 E0.5805
G1 X123.172 Y115.765 E0.7282
G1 X123.959 Y115.403 E0.9874
G1 X123.959 Y119.602 E2.2442
G1 X123.187 Y119.832 E2.4853
G1 X120.780 Y116.146 E3.8028
; feature outer perimeter
G1 X120.874 Y114.816 F4800
G92 E0.0000
G1 X121.231 Y114.864 E0.1080 F552
G1 X121.586 Y114.875 E0.2142
G1 X121.993 Y114.841 E0.3364
G1 X122.393 Y114.758 E0.4587
G1 X122.732 Y114.646 E0.5657
G1 X123.103 Y114.476 E0.6879
G1 X123.455 Y114.259 E0.8117
G1 X123.817 Y113.964 E0.9515
G1 X124.137 Y113.619 E1.0921
G1 X124.406 Y113.234 E1.2327
G1 X124.617 Y112.818 E1.3725
G1 X124.755 Y112.425 E1.4971
G1 X124.852 Y111.971 E1.6361
G1 X124.884 Y111.556 E1.7607
G1 X124.860 Y111.090 E1.9005
G1 X124.771 Y110.631 E2.0403
G1 X124.639 Y110.236 E2.1648
G1 X124.435 Y109.816 E2.3046
G1 X124.173 Y109.427 E2.4452
G1 X123.860 Y109.077 E2.5858
G1 X123.503 Y108.776 E2.7256
